X: 18
T: Polska ur E L Lindblads notbok
B: SMUS - katalog M177 bild 99 (no 18)
B: E L Lindblads notbok
S: efter [[Personer/E L Lindblad]]
R: Polska
O: Uppland
N: Se även +
Z: Nils L
M: 3/4
L: 1/16
K: Em
B4 e2^d2 e2f2 | g2fg agfe f4 | B2eB A2G2 F2E2 | ^D2E2 G2FE F4 |
B4 e2^d2 e2f2 | g2fg agfe f4 | b4 a2fa g2bg | faf^d e4 !fine!E4 ::
b4 b2ab c'4 | ^dedc BcBA (G2F2) | a4 Ta2ga b4 | gagf e^dcB A2G2 !D.C.! :|

